!!!!SEGMENT: pl-kk--kk-i-315--005_palestrina-giovanni-pierluigi-da--si-ignoras-te-o-pulchra.krn
!!!cenid: 16xx:1101
!!!COM: Palestrina, Giovanni Pierluigi da
!!!COM-rismid: pe1904
!!!CDT: ~1525-1594/02/02
!!!CNT: Italian
!!!OTL: Si ignoras te o pulchra
!!!PDT:
!!!AGN: Sacred
!!!SMS-siglum: PL-Kk
!!!SMS-shelfmark: Kk.I.315
!!!SMS-shelfwork: 005 W
!!!SMS-variant:
!!!SMS-altvar:
!!!NIFC-rismid: 1001146224
!!!URL-scan: http://repozytorium.nifc.pl/skany/pl-kk-nut--i-315
!!!ONB-nifc: UWAGA: motety w zbiorze: 1. Osculetur me, 2. Trahe me post curremus, 3. Nigra sum sed formosa, 4. Vineam meam, 5. Si ignoras te o pulchra, 6. Pulchrae sunt genae tuae, 7. Fasciculus myrrhae, 8. Ecce tu pulcher es, 9. Tota pulchra es amica mea, 10. Vulnerasti cor meum, 11. Sicut lilium inter spinas, 12. Introduxit me rex, 13. Laeva ejus, 14. Vox dilecti mei
**kern	**text
*I"[Altus]	*
*I'[A]	*
*clefC2	*
*k[b-]	*
*d:	*
*M2/1	*
*met(C|)	*
=1-	=1-
!LO:TX:t=P:problem:przy kluczu B- b-	!
0d	Si
=2-	=2-
1f	i-
1g	-gno-
=3-	=3-
1a,<	-ras
2d/	te
2g\	o
=4-	=4-
1b-	pul-
2a,<\	-chra
2a\	in-
=5-	=5-
2a\	-ter
2a\	mu-
2g\	-li-
2f\	-e-
=6-	=6-
4e/	.
4f/	.
!LO:LB:g=original	!
2.g\	.
4f\	.
4f\	.
!LO:N:vis=16	!
8g\L	.
!LO:N:vis=16	!
8a\J	.
=7-	=7-
2b-\	.
4a\	.
4g\	.
2a,<\	-res
2d/	o
=8-	=8-
1f	pul-
2d,</	-chra
2a\	in-
=9-	=9-
2a\	-ter
2a\	mu-
2.g\	-li-
4f\	-e-
=10-	=10-
*lig	*
1e	-res
1d,<	.
*Xlig	*
!LO:LB:g=original	!
=11-	=11-
2r	.
2g\	o
1b-	pul-
=12-	=12-
2g,<\	-chra
2b-\	in-
2a,<\	-ter
2g\	mu-
=13-	=13-
2g\	-li-
2f\	-e-
1g	-res
=14-	=14-
2r	.
2a\	o
2b-\	pul-
1a\	-chra
=15-	=15-
.	.
2g\	in-
2f,<\	-ter
!LO:LB:g=original	!
1a\	mu-
=16-	=16-
.	.
1g	-li-
2f\	-e-
=17-	=17-
1g	-res
2r	.
2d/	e-
=18-	=18-
2.g\	-gre-
4a\	-de-
2b-,<\	-re
2a\	et
=19-	=19-
1g	a-
1f#X	-bi
=20-	=20-
!LO:TX:a:t=2	!
0r	.
=21-	=21-
2rc	.
2d/	e-
2.fny\	-gre-
!LO:SIC:v:t=custos a	!
4g\	-de-
!LO:LB:g=original	!
=22-	=22-
1.a,<	-re
2a\	et
=23-	=23-
1a	a-
1a,<	-bi
=24-	=24-
1f	post
2g\	ve-
2.a\	-sti-
=25-	=25-
.	.
!LO:TX:t=P:problem:pominięta nuta 4a	!
4ryy	.
2b-\	-gi-
1cc,<	-a
=26-	=26-
2b-\	gre-
2a,<\	-gum
2g\	tu-
2a\	-o-
=27-	=27-
!LO:TX:t=P:problem:kreska pseudotaktowa	!
1f	-rum
!LO:LB:g=original	!
0r	.
=28-	=28-
.	.
2r	.
2a\	gre-
=29-	=29-
2b-,<\	-gum
2a\	tu-
2.g\	-o-
4a\	.
=30-	=30-
2b-\	.
4a\	.
4g\	.
1a	.
=31-	=31-
1a	-rum
0r	.
=32-	=32-
.	.
1r	.
=33-	=33-
2r	.
2a\	et
2g\	pa-
!LO:TX:t=P:problem:kreska pseudotaktowa	!
2a\	-sce
!LO:LB:g=original	!
=34-	=34-
2f\	he-
2g\	-dos
4a\	tu-
4g\	.
4f\	.
4e/	.
=35-	=35-
4d/	.
4B-/	.
1f	.
2e/	.
=36-	=36-
2f,<\	-os
2a\	et
2g\	pa-
2a,<\	-sce
=37-	=37-
2f\	he-
2g\	-dos
2.a\	tu-
4b-\	.
!LO:LB:g=original	!
=38-	=38-
2.cc\	.
4b-\	.
2a\	.
2g,<\	-os
=39-	=39-
1.a	ju-
2g,<\	-xta
=40-	=40-
2a\	ta-
2g\	-ber-
2.a\	-na-
4g\	-cu-
=41-	=41-
2f,<\	-la
2e/	pa-
2d/	-sto-
2d/	-rum
!LO:LB:g=original	!
=42-	=42-
2r	.
1a	ta-
2a\	-ber-
=43-	=43-
2.b-\	-na-
4a\	-cu-
2g,<\	-la
2a\	pa-
=44-	=44-
1b-	-sto-
1.a	-rum
=45-	=45-
.	.
2f\	e-
2f\	-qui-
2.e/	-ta-
=46-	=46-
.	.
4e/	-tu-
2a,<\	-i
!LO:PB:g=original	!
2.g\	me-
4a\	.
=47-	=47-
4b-\	.
4a\	.
2g\	.
0f	-o
=48-	=48-
.	.
2r	.
2f\	e-
=49-	=49-
2f\	-qui-
2.a\	-ta-
4a\	-tu-
2a\	-i
=50-	=50-
1cc	me-
1b-	-o
=51-	=51-
2r	.
2d/	in
4d/	cur-
4e/	.
4f\	.
4g\	.
!LO:LB:g=original	!
=52-	=52-
2a\	.
2a\	-ri-
2d,</	-bus
1a\	Pha-
=53-	=53-
.	.
2g\	-o-
2.a\	.
4g\	.
=54-	=54-
2f\	.
2d/	-nis
2r	.
2g\	aſ-
=55-	=55-
2g\	-si-
2g\	-mi-
2b-\	-la-
!LO:TX:t=P:problem:kreska pseudotaktowa	!
2a\	-vi
!LO:LB:g=original	!
=56-	=56-
2g,<\	te
2f\	a-
2e-X/	-mi-
2e-,</	-ca
=57-	=57-
2d/	me-
4c/	.
4B-/	.
0d	.
=58-	=58-
.	.
1A	-a
=59-	=59-
2r	.
2a\	a-
1b-	-mi-
=60-	=60-
2a,<\	-ca
2g\	me-
!LO:TX:t=P:problem:kreska pseudotaktowa	!
1a	-a
!LO:LB:g=original	!
=61-	=61-
2r	.
2a\	aſ-
2a\	-si-
2a\	-mi-
=62-	=62-
2b-\	-la-
2a,<\	-vi
2g\	te
2b-\	a-
=63-	=63-
2a\	-mi-
2g\	-ca
2f#X\	me-
1g\	.
=64-	=64-
.	.
4f#X\	.
4eny\	.
1f#	.
=65-	=65-
0lg	-a
==	==
*-	*-
!!!RDF**kern: > = above
!!!RDF**kern: < = below
!!!RDF**kern: l = terminal long
!!!ENC: Andrzej Kubiczek
!!!END: 2021-03-29
!!!ENC: Krzysztof Stępień
!!!END: 2021-03-19
